gama.ui.shared/icons_svg/dark/views/layout.menu.svg

<svg height="25" viewBox="-814.483 -3025.285 25 25" width="25" xmlns="http://www.w3.org/2000/svg"><g fill="none"><path d="m-810.1428-3024.7847h16.32c2.1208 0 3.84 1.7192 3.84 3.84v16.32c0 2.1207-1.7192 3.84-3.84 3.84h-16.32c-2.1207 0-3.84-1.7193-3.84-3.84v-16.32c0-2.1208 1.7193-3.84 3.84-3.84z" fill="#666"/><path d="m-810.1428-3024.7847h16.32c2.1208 0 3.84 1.7192 3.84 3.84v16.32c0 2.1207-1.7192 3.84-3.84 3.84h-16.32c-2.1207 0-3.84-1.7193-3.84-3.84v-16.32c0-2.1208 1.7193-3.84 3.84-3.84z" stroke="#fff" stroke-linecap="round" stroke-linejoin="round" stroke-width=".25"/><path d="m-801.0939-3005.6736h4.8889c.7378 0 1.3334-.5956 1.3334-1.3334v-6.6666h-6.2223zm-.8889 0v-5.3334h-7.1111v4c0 .7378.5956 1.3334 1.3334 1.3334zm0-6.2224v-8h-5.7777c-.7378 0-1.3334.5957-1.3334 1.3335v6.6665zm.8889-8v5.3335h6.2223v-4c0-.7378-.5956-1.3335-1.3334-1.3335zm-8.8889 1.3335c0-1.2267.9956-2.2222 2.2223-2.2222h11.5555c1.2267 0 2.2222.9955 2.2222 2.2222v11.5555c0 1.2267-.9955 2.2223-2.2222 2.2223h-11.5555c-1.2267 0-2.2223-.9956-2.2223-2.2223z" fill="#e3e6e1"/></g></svg>

<?xml version="1.0" encoding="UTF-8" standalone="no"?>
<!DOCTYPE svg PUBLIC "-//W3C//DTD SVG 1.1//EN" "http://www.w3.org/Graphics/SVG/1.1/DTD/svg11.dtd">
<svg xmlns="http://www.w3.org/2000/svg" xmlns:xl="http://www.w3.org/1999/xlink" version="1.1" xmlns:dc="http://purl.org/dc/elements/1.1/" viewBox="-814.4828 -3025.2847 25 25" width="25" height="25">
  <defs/>
  <g id="SOURCES" stroke-opacity="1" fill="none" stroke="none" fill-opacity="1" stroke-dasharray="none">
    <title>SOURCES</title>
    <g id="SOURCES_Dark">
      <title>Dark</title>
      <g id="Graphic_11099">
        <path d="M -810.1428 -3024.7847 L -793.8228 -3024.7847 C -791.702 -3024.7847 -789.9828 -3023.0655 -789.9828 -3020.9447 L -789.9828 -3004.6247 C -789.9828 -3002.504 -791.702 -3000.7847 -793.8228 -3000.7847 L -810.1428 -3000.7847 C -812.2635 -3000.7847 -813.9828 -3002.504 -813.9828 -3004.6247 L -813.9828 -3020.9447 C -813.9828 -3023.0655 -812.2635 -3024.7847 -810.1428 -3024.7847 Z" fill="#666"/>
        <path d="M -810.1428 -3024.7847 L -793.8228 -3024.7847 C -791.702 -3024.7847 -789.9828 -3023.0655 -789.9828 -3020.9447 L -789.9828 -3004.6247 C -789.9828 -3002.504 -791.702 -3000.7847 -793.8228 -3000.7847 L -810.1428 -3000.7847 C -812.2635 -3000.7847 -813.9828 -3002.504 -813.9828 -3004.6247 L -813.9828 -3020.9447 C -813.9828 -3023.0655 -812.2635 -3024.7847 -810.1428 -3024.7847 Z" stroke="white" stroke-linecap="round" stroke-linejoin="round" stroke-width=".25"/>
      </g>
      <g id="Graphic_11098">
        <path d="M -801.0939 -3005.6736 L -796.205 -3005.6736 C -795.4672 -3005.6736 -794.8716 -3006.2692 -794.8716 -3007.007 L -794.8716 -3013.6736 L -801.0939 -3013.6736 Z M -801.9828 -3005.6736 L -801.9828 -3011.007 L -809.0939 -3011.007 L -809.0939 -3007.007 C -809.0939 -3006.2692 -808.4983 -3005.6736 -807.7605 -3005.6736 Z M -801.9828 -3011.896 L -801.9828 -3019.896 L -807.7605 -3019.896 C -808.4983 -3019.896 -809.0939 -3019.3003 -809.0939 -3018.5625 L -809.0939 -3011.896 Z M -801.0939 -3019.896 L -801.0939 -3014.5625 L -794.8716 -3014.5625 L -794.8716 -3018.5625 C -794.8716 -3019.3003 -795.4672 -3019.896 -796.205 -3019.896 Z M -809.9828 -3018.5625 C -809.9828 -3019.7892 -808.9872 -3020.7847 -807.7605 -3020.7847 L -796.205 -3020.7847 C -794.9783 -3020.7847 -793.9828 -3019.7892 -793.9828 -3018.5625 L -793.9828 -3007.007 C -793.9828 -3005.7803 -794.9783 -3004.7847 -796.205 -3004.7847 L -807.7605 -3004.7847 C -808.9872 -3004.7847 -809.9828 -3005.7803 -809.9828 -3007.007 Z" fill="#e3e6e1"/>
      </g>
    </g>
  </g>
</svg>
